X:1
T:Title
%%score { ( 1 3 ) | ( 2 4 ) }
L:1/8
M:4/4
K:Bb
V:1 treble nm="Grand Piano"
V:3 treble 
V:2 bass 
V:4 bass 
V:1
 z4 z2[Q:1/4=118] [DF]2 | [DF]4 [EG]2 [DF]2 | [B,D]4 [DF]2 [FB]2 | c4 z4 | [Fd]6 [Fd]2 | %5
 [Ge]4 [EG]2 [Ge]2 | [Fd]4 [DB]2 [Fd]2 | d2 z2 z4 | [Ec]6 [EF]2 | [DF]4 [EG]2 [DF]2 | %10
 [B,D]4 [DF]2 [FB]2 | c4 z4 | [Fd]6 [_Ad]2 | [Ge]4 [EG]2 [^Fe]2 | [Fd]4 [DB]2 [Fd]2 | d2 z2 z4 | %16
[M:3/4] [DB]6 |[M:1/4] [FB]2 |[M:4/4] c4 c2 F2 | d3 c B2 d2 | e2 d2 c2 [=EB]2 |[M:3/4] c6 | %22
[M:1/4] F2 |[M:4/4] [Ff]4 [Fd]2 [FB]2 | [EG]4 [Gc]2 [Ge]2 | d4 c2 c2 |[M:3/4] [DB]6 |] %27
V:2
 z4 z2 [B,,B,]2 | [B,,B,]4 [B,,B,]2 [B,,B,]2 | [B,,F,]4 [B,,B,]2 [D,B,]2 | [A,F]4 z4 | %4
 [B,,B,]6 [B,,B,]2 | [E,B,]4 [E,B,]2 [E,B,]2 | [B,,B,]4 [B,,F,]2 [B,,B,]2 | %7
 [C,B,]4 [C,G,]2 [C,B,]2 | [F,A,]6 [F,A,]2 | [B,,B,]4 [B,,B,]2 [B,,B,]2 | %10
 [B,,F,]4 [B,,B,]2 [D,B,]2 | [A,F]4 z4 | [B,,B,]6 [B,,B,]2 | [E,B,]4 [E,B,]2 [E,B,]2 | %14
 [B,,B,]4 [B,,F,]2 [B,,B,]2 | E,2- [E,C]2 [F,DF]2 [F,CE]2 |[M:3/4] [B,,B,]6 |[M:1/4] [D,B,]2 | %18
[M:4/4][K:treble] [F,A,F]4 [F,A,F]2 [A,C]2 | z2 z E [B,DF]2 [B,F]2 | F4[K:bass] z4 | %21
[M:3/4] [F,A,F]6 |[M:1/4] [E,A,]2 |[M:4/4] [D,B,]4 [B,,B,]2 [D,B,]2 | [E,B,]4 [E,B,]2 [C,B,]2 | %25
 [F,B,F]4 [F,A,E]2 [F,A,E]2 |[M:3/4] [B,,F,B,]6 |] %27
V:3
 x8 | x8 | x8 | z2 E,2 [FB]2 [Fc]2 | x8 | x8 | x8 | =E2- [Ec]2 [EB]2 [EG]2 | x8 | x8 | x8 | %11
 z2 E,2 [FB]2 [Fc]2 | x8 | x8 | x8 | G2- [Gc]2 B2 A2 |[M:3/4] x6 |[M:1/4] x2 |[M:4/4] x8 | x8 | %20
 x8 |[M:3/4] x6 |[M:1/4] x2 |[M:4/4] x8 | x8 | x8 |[M:3/4] x6 |] %27
V:4
 x8 | x8 | x8 | F,2 z2 [D,B,]2 [C,A,]2 | x8 | x8 | x8 | x8 | x8 | x8 | x8 | %11
 F,2 z2 [D,B,]2 [C,A,]2 | x8 | x8 | x8 | B,2 z2 z4 |[M:3/4] x6 |[M:1/4] x2 |[M:4/4][K:treble] x8 | %19
 [B,F]4 z4 | [A,C]2[K:bass] B,2 [G,B,=E]2 [C,C]2 |[M:3/4] x6 |[M:1/4] x2 |[M:4/4] x8 | x8 | x8 | %26
[M:3/4] x6 |] %27

